X:14
T:Polska ur Petter Dufvas notbok (Ma6-14)
R:Polska
O:Verkelbäck, Småland
B:Petter Dufvas notbok
S:Petter Dufva
N:Smus Ma6 bild 16
M:3/4
L:1/8
K:G
GB/d/ gf g2|Gc/e/ gf g2|de/d/ cd/c/ Bc/B/|AG/F/ G2 G,2:| |:BA/G/ cB/A/ dc/B/|
ed/c/ fe/d/ g2|BA/G/ cB/A/ dc/B/|ed/c/ fe/d/ g2|de/d/ cd/c/ Bc/B/|AG/F/ G2 G,2:|

